compass-off.svg

<svg fill="currentColor" viewBox="0 0 24 24"><path d="m1 3.5 1.28-1.25 19.47 19.47L20.5 23l-2.8-2.78A10 10 0 0 1 12 22 10 10 0 0 1 2 12c0-2.12.66-4.08 1.78-5.7zM6 18l6.47-3L9 11.53zM18 6l-6.44 3-5.23-5.24A9.97 9.97 0 0 1 12 2a10 10 0 0 1 10 10c0 2.1-.65 4.06-1.76 5.67L15 12.44z"/></svg>

<svg  viewBox="0 0 24 24" fill="currentColor"><path  d="M1,3.5L2.28,2.25L21.75,21.72L20.5,23L17.7,20.22C16.08,21.34 14.12,22 12,22A10,10 0 0,1 2,12C2,9.88 2.66,7.92 3.78,6.3L1,3.5M6,18L12.47,15L9,11.53L6,18M18,6L11.56,9L6.33,3.76C7.94,2.65 9.9,2 12,2A10,10 0 0,1 22,12C22,14.1 21.35,16.06 20.24,17.67L15,12.44L18,6Z"/></svg>
